public/start.svg

<svg width="1440" height="550" viewBox="0 0 1440 550" fill="none" xmlns="http://www.w3.org/2000/svg">
<g opacity="0.71">
<path d="M1531.34 139.539H1531.31C1531.11 142.339 1528.99 145.255 1525 147.555L1265.44 291.155C1257.77 295.582 1246.17 296.063 1239.53 292.229L1146.14 238.305C1142.95 236.463 1141.5 233.959 1141.69 231.365H1141.67V200.265H1187.97L1407.56 79.7512C1415.23 75.3252 1426.83 74.8442 1433.47 78.6782L1315.13 200.269L1531.34 108.446V139.539Z" fill="#E4E9F9"/>
</g>
<g opacity="0.71">
<path d="M1645.5 240.442H1645.46C1645.26 243.242 1643.14 246.158 1639.15 248.457L1379.59 392.057C1371.92 396.484 1360.32 396.964 1353.68 393.131L1260.29 339.21C1257.1 337.368 1255.65 334.864 1255.84 332.27H1255.82V301.172H1302.11L1521.71 180.654C1529.38 176.228 1540.98 175.747 1547.62 179.581L1429.28 301.172L1645.5 209.349V240.442Z" fill="#E4E9F9"/>
</g>
<g opacity="0.71">
<path d="M1761.47 341.207H1761.44C1761.24 344.007 1759.11 346.923 1755.13 349.223L1495.56 492.823C1487.9 497.25 1476.3 497.73 1469.66 493.896L1376.26 439.973C1373.07 438.131 1371.62 435.627 1371.81 433.033H1371.8V401.933H1418.09L1637.69 281.416C1645.36 276.99 1656.95 276.508 1663.59 280.342L1545.26 401.938L1761.47 310.112L1761.47 341.207Z" fill="#E4E9F9"/>
</g>
<path d="M749.215 256.104L1113.54 44.8723C1120.93 40.6275 1129.27 38.3301 1137.78 38.1962C1146.3 38.0624 1154.71 40.0965 1162.22 44.1073L1293.93 115.038L1294.88 113.278L1163.17 42.3463C1155.35 38.1763 1146.61 36.0619 1137.75 36.2018C1128.89 36.3418 1120.22 38.7315 1112.54 43.1463L748.215 254.374L749.215 256.104Z" fill="url(#paint0_linear_9_87587)"/>
<path d="M1265.31 259.154L1524.87 115.563C1532.54 111.137 1533.37 104.44 1526.73 100.607L1433.34 46.6895C1426.7 42.8565 1415.11 43.3365 1407.44 47.7625L1147.88 191.355C1140.21 195.781 1139.38 202.478 1146.02 206.311L1239.41 260.228C1246.04 264.061 1257.64 263.58 1265.31 259.154Z" fill="#F5F8FD"/>
<path d="M1379.46 360.06L1639.02 216.469C1646.69 212.042 1647.52 205.346 1640.88 201.513L1547.49 147.596C1540.85 143.763 1529.25 144.243 1521.59 148.669L1262.03 292.26C1254.36 296.687 1253.53 303.383 1260.17 307.217L1353.56 361.134C1360.2 364.968 1371.8 364.487 1379.46 360.06Z" fill="#F5F8FD"/>
<path d="M1495.44 460.822L1755 317.231C1762.67 312.804 1763.5 306.108 1756.86 302.275L1663.47 248.358C1656.83 244.524 1645.23 245.005 1637.56 249.431L1378.01 393.022C1370.34 397.449 1369.51 404.145 1376.15 407.978L1469.53 461.896C1476.17 465.729 1487.77 465.249 1495.44 460.822Z" fill="#F5F8FD"/>
<g opacity="0.71">
<path d="M-97.665 108.446L118.547 200.269L0.214981 78.6782C6.85598 74.8442 18.455 75.3252 26.123 79.7512L245.715 200.269H292.009V231.36H291.994C292.183 233.954 290.736 236.46 287.545 238.3L194.151 292.224C187.511 296.058 175.912 295.577 168.243 291.15L-91.323 147.555C-95.306 145.255 -97.423 142.344 -97.632 139.539H-97.666L-97.665 108.446Z" fill="#E4E9F9"/>
</g>
<g opacity="0.71">
<path d="M-211.817 209.349L4.39464 301.172L-113.939 179.581C-107.299 175.747 -95.7004 176.228 -88.0324 180.654L131.562 301.172H177.856V332.263H177.841C178.03 334.857 176.583 337.363 173.392 339.203L79.9977 393.127C73.3576 396.96 61.7586 396.48 54.0896 392.053L-205.475 248.457C-209.458 246.157 -211.575 243.246 -211.784 240.442H-211.818L-211.817 209.349Z" fill="#E4E9F9"/>
</g>
<g opacity="0.71">
<path d="M-327.793 310.112L-111.581 401.938L-229.915 280.346C-223.275 276.512 -211.676 276.994 -204.007 281.42L15.587 401.937H61.881V433.029H61.865C62.054 435.623 60.607 438.129 57.416 439.969L-35.978 493.892C-42.618 497.726 -54.217 497.246 -61.885 492.819L-321.45 349.219C-325.434 346.919 -327.55 344.008 -327.76 341.203H-327.793V310.112Z" fill="#E4E9F9"/>
</g>
<path d="M684.462 256.103L320.135 44.8709C312.753 40.6256 304.412 38.328 295.898 38.1942C287.383 38.0604 278.975 40.0947 271.463 44.1058L139.746 115.037L138.797 113.277L270.516 42.3448C278.329 38.1741 287.075 36.0588 295.93 36.1978C304.786 36.3369 313.461 38.7258 321.139 43.1398L685.465 254.373L684.462 256.103Z" fill="url(#paint1_linear_9_87587)"/>
<path d="M853.283 105.584H791.19L722.072 65.6839C713.172 60.5449 697.621 61.189 687.342 67.128L620.718 105.588H558.658V310.648H558.679C558.423 314.123 560.366 317.48 564.641 319.948L689.841 392.233C698.741 397.371 714.293 396.728 724.572 390.789L844.78 321.389C850.117 318.309 852.962 314.406 853.238 310.645H853.284L853.283 105.584Z" fill="url(#paint2_linear_9_87587)"/>
<path d="M689.837 187.176L564.637 114.892C555.737 109.753 556.854 100.773 567.131 94.8411L687.341 25.4351C697.62 19.5031 713.167 18.8591 722.071 23.9921L847.271 96.2761C856.171 101.415 855.056 110.391 844.777 116.327L724.569 185.727C714.29 191.669 698.742 192.312 689.837 187.176Z" fill="#F2F5FC"/>
<path fill-rule="evenodd" clip-rule="evenodd" d="M808.813 82.0983H805.93C801.642 71.8353 792.568 62.1063 778.704 54.0983C738.559 30.9203 673.372 30.9203 633.228 54.0983C619.363 62.1033 610.29 71.8323 606.002 82.0983H603.113V96.0983C603.113 111.298 613.149 126.505 633.222 138.098C673.366 161.276 738.553 161.276 778.698 138.098C798.77 126.509 808.807 111.306 808.806 96.0983L808.813 82.0983Z" fill="url(#paint3_linear_9_87587)"/>
<path fill-rule="evenodd" clip-rule="evenodd" d="M778.702 40.1023C818.847 63.2812 818.847 100.916 778.702 124.093C738.557 147.27 673.37 147.272 633.226 124.093C593.082 100.914 593.081 63.2812 633.226 40.1023C673.371 16.9233 738.557 16.9253 778.702 40.1023Z" fill="url(#paint4_linear_9_87587)"/>
<path fill-rule="evenodd" clip-rule="evenodd" d="M757.491 52.3518C785.926 68.7688 785.926 95.4278 757.491 111.845C729.056 128.262 682.881 128.263 654.444 111.845C626.007 95.4268 626.009 68.7688 654.444 52.3518C682.879 35.9348 729.055 35.9348 757.491 52.3518Z" fill="#FFE06A"/>
<path fill-rule="evenodd" clip-rule="evenodd" d="M754.459 54.1011C781.222 69.5541 781.222 94.6431 754.459 110.095C727.696 125.547 684.238 125.548 657.475 110.095C630.712 94.6421 630.712 69.5541 657.475 54.1011C684.238 38.6481 727.696 38.6491 754.459 54.1011Z" fill="#FFCC00"/>
<path fill-rule="evenodd" clip-rule="evenodd" d="M774.529 40.1016H637.398V82.1015H774.528V40.1016H774.529Z" fill="#FFCC00"/>
<path fill-rule="evenodd" clip-rule="evenodd" d="M754.459 12.1046C781.222 27.5576 781.222 52.6476 754.459 68.0986C727.696 83.5496 684.238 83.5516 657.475 68.0986C630.712 52.6456 630.712 27.5576 657.475 12.1046C684.238 -3.34838 727.696 -3.34638 754.459 12.1046Z" fill="#FFE06A"/>
<path d="M669.087 23.9399C669.573 24.2283 670.084 24.4698 670.615 24.6609C671.023 24.8062 671.446 24.9025 671.875 24.9479C672.22 24.9841 672.569 24.9615 672.906 24.8809C673.21 24.8034 673.501 24.6846 673.772 24.5279C674.021 24.4301 674.224 24.2416 674.34 24.0004C674.455 23.7592 674.475 23.4832 674.395 23.2279C674.021 22.3619 673.49 21.5721 672.83 20.8979C672.459 20.4518 672.115 19.9843 671.798 19.4979C671.502 19.0571 671.31 18.5542 671.238 18.0279C671.185 17.5103 671.302 16.9895 671.57 16.5439C671.983 15.9272 672.549 15.4283 673.212 15.0959C674.04 14.6209 674.938 14.2809 675.872 14.0889C676.847 13.8877 677.845 13.8161 678.838 13.8759C679.888 13.9407 680.926 14.1307 681.93 14.4419C683.001 14.7721 684.031 15.2233 684.999 15.7869C685.989 16.3236 686.898 16.9969 687.699 17.7869C688.21 18.2973 688.647 18.8758 688.999 19.5059L684.723 20.6529C684.451 20.1732 684.127 19.7248 683.756 19.3159C683.206 18.7449 682.57 18.2634 681.871 17.8889C681.125 17.4179 680.296 17.0941 679.427 16.9349C678.796 16.8369 678.15 16.9557 677.595 17.2719C677.333 17.3935 677.124 17.6069 677.008 17.8719C676.943 18.1108 676.961 18.365 677.06 18.5919C677.183 18.8918 677.345 19.1737 677.543 19.4299C677.764 19.7239 678.019 20.0422 678.307 20.3849C678.813 21.0081 679.276 21.6638 679.695 22.3479C680.015 22.8402 680.199 23.4079 680.229 23.9939C680.229 24.5357 680.035 25.0594 679.682 25.4709C679.164 26.0576 678.543 26.5455 677.85 26.9109C676.162 27.8708 674.222 28.2942 672.287 28.1249C669.953 27.8925 667.702 27.1309 665.706 25.8979C665.02 25.5096 664.36 25.0753 663.732 24.5979C663.265 24.2412 662.823 23.8529 662.408 23.4359C662.109 23.1367 661.837 22.8122 661.593 22.4659C661.427 22.2247 661.278 21.9717 661.148 21.7089L665.426 20.5329C665.741 21.1093 666.135 21.6388 666.596 22.1059C667.337 22.8327 668.177 23.4511 669.091 23.9429L669.087 23.9399Z" fill="white"/>
<path d="M706.286 28.5425L702.9 30.4965L697.579 27.4255L683.323 35.6565L679.352 33.3635L693.608 25.1325L688.287 22.0595L691.673 20.1055L706.286 28.5425Z" fill="white"/>
<path d="M700.936 45.8275C701.353 45.3609 701.772 44.8756 702.192 44.3716C702.613 43.8676 703.032 43.3676 703.448 42.8716L696.556 38.8936L693.956 39.6236C693.085 39.8676 692.249 40.1092 691.448 40.3486L687.324 37.9676C689.888 37.2536 692.274 36.6032 694.482 36.0166C696.69 35.4299 698.793 34.8896 700.789 34.3956C702.785 33.9016 704.701 33.4446 706.535 33.0246C708.37 32.6046 710.196 32.2136 712.014 31.8516L715.778 34.0256C715.138 35.0656 714.457 36.1179 713.737 37.1826C713.017 38.2472 712.231 39.3559 711.377 40.5086C710.523 41.6626 709.59 42.8765 708.577 44.1505C707.565 45.4245 706.439 46.8033 705.2 48.2866L700.946 45.8306L700.936 45.8275ZM709.811 35.1946C709.466 35.2912 708.988 35.4176 708.376 35.5736C707.765 35.7296 707.062 35.9116 706.266 36.1196C705.466 36.3282 704.586 36.5552 703.624 36.8006C702.663 37.0459 701.661 37.3086 700.617 37.5886L705.662 40.5016C706.158 39.9016 706.628 39.3286 707.07 38.7826C707.513 38.2366 707.91 37.7299 708.262 37.2626C708.613 36.7956 708.922 36.3876 709.191 36.0336C709.46 35.6796 709.666 35.4006 709.814 35.1946H709.811Z" fill="white"/>
<path d="M730.469 42.2708C733.118 43.7988 734.675 45.2414 735.141 46.5988C735.607 47.9561 734.848 49.2081 732.863 50.3547C731.681 51.0516 730.359 51.4778 728.992 51.6028C727.557 51.7129 726.112 51.5893 724.716 51.2368C724.615 51.7517 724.482 52.2597 724.316 52.7578C724.138 53.3111 723.93 53.8778 723.692 54.4578C723.454 55.0378 723.179 55.6234 722.865 56.2148C722.551 56.8074 722.225 57.3781 721.885 57.9268L717.446 55.3638C717.699 54.8438 717.956 54.3164 718.218 53.7817C718.48 53.2471 718.717 52.7171 718.927 52.1918C719.138 51.6664 719.323 51.1607 719.482 50.6747C719.634 50.2265 719.748 49.7662 719.823 49.2988L717.863 48.1667L711.422 51.8857L707.449 49.5928L724.843 39.5508C725.878 39.9508 726.892 40.3991 727.885 40.8958C728.879 41.3924 729.74 41.8508 730.469 42.2708ZM727.313 44.3578C727.024 44.1911 726.757 44.0464 726.513 43.9238C726.266 43.8018 726.034 43.6858 725.813 43.5778L721.027 46.3408L722.146 46.9878C723.302 47.7171 724.578 48.2349 725.915 48.5168C726.908 48.6784 727.926 48.4862 728.791 47.9738C729.658 47.4738 729.947 46.9294 729.657 46.3408C729.066 45.4829 728.257 44.7984 727.313 44.3578Z" fill="white"/>
<path d="M754.911 56.6167L751.525 58.5707L746.204 55.4997L731.948 63.7307L727.977 61.4377L742.233 53.2067L736.912 50.1337L740.298 48.1797L754.911 56.6167Z" fill="white"/>
<path d="M194.271 260.228L287.658 206.31C294.297 202.477 293.467 195.779 285.797 191.353L26.2411 47.7625C18.5731 43.3365 6.9751 42.8565 0.341095 46.6895L-93.0519 100.61C-99.6919 104.443 -98.8609 111.14 -91.1919 115.566L168.366 259.154C176.032 263.58 187.631 264.061 194.271 260.228Z" fill="#F5F8FD"/>
<path d="M80.1207 361.134L173.508 307.212C180.147 303.378 179.317 296.682 171.648 292.255L-87.9093 148.669C-95.5773 144.243 -107.175 143.763 -113.809 147.596L-207.202 201.512C-213.842 205.345 -213.011 212.041 -205.342 216.468L54.2147 360.06C61.8817 364.487 73.4807 364.968 80.1207 361.134Z" fill="#F5F8FD"/>
<path d="M-35.8549 461.896L57.5321 407.978C64.1721 404.145 63.3412 397.449 55.6721 393.022L-203.886 249.431C-211.553 245.005 -223.152 244.524 -229.791 248.358L-323.179 302.275C-329.819 306.108 -328.988 312.804 -321.319 317.231L-61.7599 460.822C-54.0939 465.249 -42.4939 465.729 -35.8549 461.896Z" fill="#F5F8FD"/>
<path d="M-391.5 84.7031H1937.5V549.703H-391.5V84.7031Z" fill="url(#paint5_linear_9_87587)"/>
<defs>
<linearGradient id="paint0_linear_9_87587" x1="-937.162" y1="146.15" x2="-390.495" y2="146.15" gradientUnits="userSpaceOnUse">
<stop stop-color="#A0CCE0"/>
<stop offset="1" stop-color="#69A1E3"/>
</linearGradient>
<linearGradient id="paint1_linear_9_87587" x1="138.797" y1="36.1914" x2="685.465" y2="36.1914" gradientUnits="userSpaceOnUse">
<stop stop-color="#A0CCE0"/>
<stop offset="1" stop-color="#69A1E3"/>
</linearGradient>
<linearGradient id="paint2_linear_9_87587" x1="-222.401" y1="608.8" x2="-222.401" y2="610.134" gradientUnits="userSpaceOnUse">
<stop stop-color="white"/>
<stop offset="1" stop-color="#C8CEDE"/>
</linearGradient>
<linearGradient id="paint3_linear_9_87587" x1="499.646" y1="111.301" x2="1252.24" y2="-55.0846" gradientUnits="userSpaceOnUse">
<stop stop-color="#A0CCE0"/>
<stop offset="1" stop-color="#69A1E3"/>
</linearGradient>
<linearGradient id="paint4_linear_9_87587" x1="603.117" y1="22.7188" x2="808.81" y2="22.7188" gradientUnits="userSpaceOnUse">
<stop stop-color="#A0CCE0"/>
<stop offset="1" stop-color="#69A1E3"/>
</linearGradient>
<linearGradient id="paint5_linear_9_87587" x1="773" y1="84.7031" x2="773" y2="549.703" gradientUnits="userSpaceOnUse">
<stop stop-color="#FCFCFC" stop-opacity="0"/>
<stop offset="1" stop-color="#FCFCFC"/>
</linearGradient>
</defs>
</svg>

<svg xmlns="http://www.w3.org/2000/svg" width="1440" height="550" fill="none" viewBox="0 0 1440 550"><path fill="#e4e9f9" d="M1531.34 139.539h-.03c-.2 2.8-2.32 5.716-6.31 8.016l-259.56 143.6c-7.67 4.427-19.27 4.908-25.91 1.074l-93.39-53.924c-3.19-1.842-4.64-4.346-4.45-6.94h-.02v-31.1h46.3l219.59-120.514c7.67-4.426 19.27-4.907 25.91-1.073L1315.13 200.27l216.21-91.823zM1645.5 240.442h-.04c-.2 2.8-2.32 5.716-6.31 8.015l-259.56 143.6c-7.67 4.427-19.27 4.907-25.91 1.074l-93.39-53.921c-3.19-1.842-4.64-4.346-4.45-6.94h-.02v-31.098h46.29l219.6-120.518c7.67-4.426 19.27-4.907 25.91-1.073l-118.34 121.591 216.22-91.823zM1761.47 341.207h-.03c-.2 2.8-2.33 5.716-6.31 8.016l-259.57 143.6c-7.66 4.427-19.26 4.907-25.9 1.073l-93.4-53.923c-3.19-1.842-4.64-4.346-4.45-6.94h-.01v-31.1h46.29l219.6-120.517c7.67-4.426 19.26-4.908 25.9-1.074l-118.33 121.596 216.21-91.826z" opacity=".71"/><path fill="url(#a)" d="M749.215 256.104 1113.54 44.872a50.25 50.25 0 0 1 24.24-6.676c8.52-.134 16.93 1.9 24.44 5.911l131.71 70.931.95-1.76-131.71-70.932a52.25 52.25 0 0 0-25.42-6.144c-8.86.14-17.53 2.53-25.21 6.944L748.215 254.374z"/><path fill="#f5f8fd" d="m1265.31 259.154 259.56-143.591c7.67-4.426 8.5-11.123 1.86-14.956l-93.39-53.917c-6.64-3.834-18.23-3.353-25.9 1.073l-259.56 143.592c-7.67 4.426-8.5 11.123-1.86 14.956l93.39 53.917c6.63 3.833 18.23 3.352 25.9-1.074M1379.46 360.06l259.56-143.591c7.67-4.427 8.5-11.123 1.86-14.956l-93.39-53.917c-6.64-3.833-18.24-3.353-25.9 1.073L1262.03 292.26c-7.67 4.427-8.5 11.123-1.86 14.957l93.39 53.917c6.64 3.834 18.24 3.353 25.9-1.074M1495.44 460.822 1755 317.231c7.67-4.427 8.5-11.123 1.86-14.956l-93.39-53.917c-6.64-3.834-18.24-3.353-25.91 1.073l-259.55 143.591c-7.67 4.427-8.5 11.123-1.86 14.956l93.38 53.918c6.64 3.833 18.24 3.353 25.91-1.074"/><path fill="#e4e9f9" d="m-97.665 108.446 216.212 91.823L.215 78.679c6.641-3.835 18.24-3.354 25.908 1.072L245.715 200.27h46.294v31.091h-.015c.189 2.594-1.258 5.1-4.449 6.94l-93.394 53.924c-6.64 3.834-18.239 3.353-25.908-1.074L-91.323 147.555c-3.983-2.3-6.1-5.211-6.309-8.016h-.034zM-211.817 209.349 4.395 301.172-113.94 179.581c6.64-3.834 18.239-3.353 25.907 1.073l219.594 120.518h46.294v31.091h-.015c.189 2.594-1.258 5.1-4.449 6.94l-93.394 53.924c-6.64 3.833-18.24 3.353-25.908-1.074l-259.565-143.596c-3.983-2.3-6.1-5.211-6.309-8.015h-.034zM-327.793 310.112l216.212 91.826-118.334-121.592c6.64-3.834 18.239-3.352 25.908 1.074L15.587 401.937h46.294v31.092h-.016c.189 2.594-1.258 5.1-4.449 6.94l-93.394 53.923c-6.64 3.834-18.239 3.354-25.907-1.073l-259.565-143.6c-3.984-2.3-6.1-5.211-6.31-8.016h-.033z" opacity=".71"/><path fill="url(#b)" d="M684.462 256.103 320.135 44.871a50.2 50.2 0 0 0-48.672-.765l-131.717 70.931-.949-1.76 131.719-70.932a52.23 52.23 0 0 1 50.623.795l364.326 211.233z"/><path fill="url(#c)" d="M853.283 105.584H791.19l-69.118-39.9c-8.9-5.14-24.451-4.495-34.73 1.444l-66.624 38.46h-62.06v205.06h.021c-.256 3.475 1.687 6.832 5.962 9.3l125.2 72.285c8.9 5.138 24.452 4.495 34.731-1.444l120.208-69.4c5.337-3.08 8.182-6.983 8.458-10.744h.046z"/><path fill="#f2f5fc" d="m689.837 187.176-125.2-72.284c-8.9-5.139-7.783-14.119 2.494-20.05l120.21-69.407c10.279-5.932 25.826-6.576 34.73-1.443l125.2 72.284c8.9 5.139 7.785 14.115-2.494 20.051l-120.208 69.4c-10.279 5.942-25.827 6.585-34.732 1.449"/><path fill="url(#d)" fill-rule="evenodd" d="M808.813 82.098h-2.883c-4.288-10.263-13.362-19.992-27.226-28-40.145-23.178-105.332-23.178-145.476 0-13.865 8.005-22.938 17.734-27.226 28h-2.889v14c0 15.2 10.036 30.407 30.109 42 40.144 23.178 105.331 23.178 145.476 0 20.072-11.589 30.109-26.792 30.108-42z" clip-rule="evenodd"/><path fill="url(#e)" fill-rule="evenodd" d="M778.702 40.102c40.145 23.18 40.145 60.814 0 83.991s-105.332 23.179-145.476 0-40.145-60.812 0-83.99c40.145-23.18 105.331-23.178 145.476 0" clip-rule="evenodd"/><path fill="#ffe06a" fill-rule="evenodd" d="M757.491 52.352c28.435 16.417 28.435 43.076 0 59.493s-74.61 16.418-103.047 0-28.435-43.076 0-59.493 74.611-16.417 103.047 0" clip-rule="evenodd"/><path fill="#fc0" fill-rule="evenodd" d="M754.459 54.101c26.763 15.453 26.763 40.542 0 55.994s-70.221 15.453-96.984 0-26.763-40.54 0-55.994c26.763-15.453 70.221-15.452 96.984 0" clip-rule="evenodd"/><path fill="#fc0" fill-rule="evenodd" d="M774.529 40.102H637.398v42h137.13z" clip-rule="evenodd"/><path fill="#ffe06a" fill-rule="evenodd" d="M754.459 12.105c26.763 15.453 26.763 40.543 0 55.994-26.763 15.45-70.221 15.453-96.984 0s-26.763-40.541 0-55.994 70.221-15.451 96.984 0" clip-rule="evenodd"/><path fill="#fff" d="M669.087 23.94q.73.434 1.528.72c.408.146.831.242 1.26.288.345.036.694.014 1.031-.067q.458-.117.866-.353a1.06 1.06 0 0 0 .623-1.3 7.7 7.7 0 0 0-1.565-2.33 15 15 0 0 1-1.032-1.4 3.5 3.5 0 0 1-.56-1.47 2.4 2.4 0 0 1 .332-1.484 4.3 4.3 0 0 1 1.642-1.448 9 9 0 0 1 2.66-1.007 11.3 11.3 0 0 1 2.966-.213c1.05.065 2.088.255 3.092.566 1.071.33 2.101.781 3.069 1.345.99.537 1.899 1.21 2.7 2 .511.51.948 1.089 1.3 1.719l-4.276 1.147a7.5 7.5 0 0 0-.967-1.337 7.6 7.6 0 0 0-1.885-1.427 6.9 6.9 0 0 0-2.444-.954 2.83 2.83 0 0 0-1.832.337 1.2 1.2 0 0 0-.587.6c-.065.239-.047.493.052.72q.185.452.483.838.332.44.764.955.76.936 1.388 1.963c.32.492.504 1.06.534 1.646 0 .542-.194 1.065-.547 1.477a6.5 6.5 0 0 1-1.832 1.44 9.57 9.57 0 0 1-5.563 1.214 15.4 15.4 0 0 1-6.581-2.227 17.5 17.5 0 0 1-1.974-1.3 13 13 0 0 1-1.324-1.162 7.4 7.4 0 0 1-.815-.97 6 6 0 0 1-.445-.757l4.278-1.176a7 7 0 0 0 1.17 1.573 11 11 0 0 0 2.495 1.837zM706.286 28.543l-3.386 1.954-5.321-3.072-14.256 8.232-3.971-2.293 14.256-8.231-5.321-3.073 3.386-1.954zM700.936 45.828q.626-.7 1.256-1.456l1.256-1.5-6.892-3.978-2.6.73a151 151 0 0 0-2.508.725l-4.124-2.381a625 625 0 0 1 7.158-1.951 382 382 0 0 1 6.307-1.621q2.995-.741 5.746-1.371t5.479-1.173l3.764 2.174a88 88 0 0 1-2.041 3.157 95 95 0 0 1-2.36 3.326 133 133 0 0 1-2.8 3.642 218 218 0 0 1-3.377 4.136l-4.254-2.456zm8.875-10.633a67 67 0 0 1-1.435.379q-.916.234-2.11.546-1.2.312-2.642.68t-3.007.789l5.045 2.913q.745-.9 1.408-1.72.664-.818 1.192-1.52.526-.698.929-1.228.402-.53.623-.84zM730.469 42.27q3.973 2.293 4.672 4.329.7 2.036-2.278 3.756a9.3 9.3 0 0 1-3.871 1.248c-1.435.11-2.88-.014-4.276-.366a12 12 0 0 1-.4 1.52q-.267.83-.624 1.7t-.827 1.758-.98 1.712l-4.439-2.563q.38-.78.772-1.582.394-.802.709-1.59.317-.788.555-1.517.228-.674.341-1.376l-1.96-1.132-6.441 3.719-3.973-2.293 17.394-10.042q1.553.6 3.042 1.345 1.49.745 2.584 1.375m-3.156 2.088a16 16 0 0 0-.8-.434q-.37-.184-.7-.346l-4.786 2.763 1.119.647a11.5 11.5 0 0 0 3.769 1.529 4.3 4.3 0 0 0 2.876-.543q1.3-.75.866-1.633a5.85 5.85 0 0 0-2.344-1.983M754.911 56.617l-3.386 1.954-5.321-3.071-14.256 8.23-3.971-2.292 14.256-8.231-5.321-3.073 3.386-1.954z"/><path fill="#f5f8fd" d="m194.271 260.228 93.387-53.918c6.639-3.833 5.809-10.531-1.861-14.957L26.241 47.763c-7.668-4.426-19.266-4.907-25.9-1.073l-93.393 53.92c-6.64 3.833-5.809 10.53 1.86 14.956l259.558 143.588c7.666 4.426 19.265 4.907 25.905 1.074M80.12 361.134l93.388-53.922c6.639-3.834 5.809-10.53-1.86-14.957L-87.909 148.669c-7.668-4.426-19.266-4.906-25.9-1.073l-93.393 53.916c-6.64 3.833-5.809 10.529 1.86 14.956L54.215 360.06c7.667 4.427 19.266 4.908 25.906 1.074M-35.855 461.896l93.387-53.918c6.64-3.833 5.81-10.529-1.86-14.956l-259.558-143.591c-7.667-4.426-19.266-4.907-25.905-1.073l-93.388 53.917c-6.64 3.833-5.809 10.529 1.86 14.956l259.56 143.591c7.665 4.427 19.265 4.907 25.904 1.074"/><path fill="url(#f)" d="M-391.5 84.703h2329v465h-2329z"/><defs><linearGradient id="a" x1="-937.162" x2="-390.495" y1="146.15" y2="146.15" gradientUnits="userSpaceOnUse"><stop stop-color="#a0cce0"/><stop offset="1" stop-color="#69a1e3"/></linearGradient><linearGradient id="b" x1="138.797" x2="685.465" y1="36.191" y2="36.191" gradientUnits="userSpaceOnUse"><stop stop-color="#a0cce0"/><stop offset="1" stop-color="#69a1e3"/></linearGradient><linearGradient id="c" x1="-222.401" x2="-222.401" y1="608.8" y2="610.134" gradientUnits="userSpaceOnUse"><stop stop-color="#fff"/><stop offset="1" stop-color="#c8cede"/></linearGradient><linearGradient id="d" x1="499.646" x2="1252.24" y1="111.301" y2="-55.085" gradientUnits="userSpaceOnUse"><stop stop-color="#a0cce0"/><stop offset="1" stop-color="#69a1e3"/></linearGradient><linearGradient id="e" x1="603.117" x2="808.81" y1="22.719" y2="22.719" gradientUnits="userSpaceOnUse"><stop stop-color="#a0cce0"/><stop offset="1" stop-color="#69a1e3"/></linearGradient><linearGradient id="f" x1="773" x2="773" y1="84.703" y2="549.703" gradientUnits="userSpaceOnUse"><stop stop-color="#fcfcfc" stop-opacity="0"/><stop offset="1" stop-color="#fcfcfc"/></linearGradient></defs></svg>
